static/img/kroki/1f12fe8da3279a1d08a3ded2dc91f500.svg

<?xml version="1.0" encoding="us-ascii" standalone="no"?><svg xmlns="http://www.w3.org/2000/svg" xmlns:xlink="http://www.w3.org/1999/xlink" contentStyleType="text/css" height="573px" preserveAspectRatio="none" style="width:365px;height:573px;" version="1.1" viewBox="0 0 365 573" width="365px" zoomAndPan="magnify"><defs/><g><!--class azure_machine_learning_usage--><g id="elem_azure_machine_learning_usage"><rect codeLine="23" fill="#3D176E" height="39.7891" id="azure_machine_learning_usage" rx="2.5" ry="2.5" style="stroke:#000D19;stroke-width:0.5;" width="305" x="18.5" y="528.16"/><ellipse cx="33.5" cy="548.0545" fill="#ADD1B2" rx="11" ry="11" style="stroke:#181818;stroke-width:1.0;"/><path d="M36.4688,553.6952 Q35.8906,553.992 35.25,554.1327 Q34.6094,554.2889 33.9063,554.2889 Q31.4063,554.2889 30.0781,552.6483 Q28.7656,550.992 28.7656,547.867 Q28.7656,544.742 30.0781,543.0858 Q31.4063,541.4295 33.9063,541.4295 Q34.6094,541.4295 35.25,541.5858 Q35.9063,541.742 36.4688,542.0389 L36.4688,544.7577 Q35.8438,544.1795 35.25,543.9139 Q34.6563,543.6327 34.0313,543.6327 Q32.6875,543.6327 32,544.7108 Q31.3125,545.7733 31.3125,547.867 Q31.3125,549.9608 32,551.0389 Q32.6875,552.1014 34.0313,552.1014 Q34.6563,552.1014 35.25,551.8358 Q35.8438,551.5545 36.4688,550.9764 L36.4688,553.6952 Z " fill="#000000"/><text fill="#D9B8FF" font-family="Helvetica" font-size="17" lengthAdjust="spacing" textLength="263" x="52.5" y="553.9398">azure_machine_learning_usage</text></g><!--class azure_usage--><g id="elem_azure_usage"><rect codeLine="26" fill="#3D176E" height="39.7891" id="azure_usage" rx="2.5" ry="2.5" style="stroke:#000D19;stroke-width:0.5;" width="146" x="180" y="367.37"/><ellipse cx="195" cy="387.2645" fill="#ADD1B2" rx="11" ry="11" style="stroke:#181818;stroke-width:1.0;"/><path d="M197.9688,392.9052 Q197.3906,393.202 196.75,393.3427 Q196.1094,393.4989 195.4063,393.4989 Q192.9063,393.4989 191.5781,391.8583 Q190.2656,390.202 190.2656,387.077 Q190.2656,383.952 191.5781,382.2958 Q192.9063,380.6395 195.4063,380.6395 Q196.1094,380.6395 196.75,380.7958 Q197.4063,380.952 197.9688,381.2489 L197.9688,383.9677 Q197.3438,383.3895 196.75,383.1239 Q196.1563,382.8427 195.5313,382.8427 Q194.1875,382.8427 193.5,383.9208 Q192.8125,384.9833 192.8125,387.077 Q192.8125,389.1708 193.5,390.2489 Q194.1875,391.3114 195.5313,391.3114 Q196.1563,391.3114 196.75,391.0458 Q197.3438,390.7645 197.9688,390.1864 L197.9688,392.9052 Z " fill="#000000"/><text fill="#D9B8FF" font-family="Helvetica" font-size="17" lengthAdjust="spacing" textLength="104" x="214" y="393.1498">azure_usage</text></g><!--class microsoft_resource--><g id="elem_microsoft_resource"><rect codeLine="29" fill="#3D176E" height="39.7891" id="microsoft_resource" rx="2.5" ry="2.5" style="stroke:#000D19;stroke-width:0.5;" width="200" x="7" y="267.58"/><ellipse cx="22" cy="287.4745" fill="#ADD1B2" rx="11" ry="11" style="stroke:#181818;stroke-width:1.0;"/><path d="M24.9688,293.1152 Q24.3906,293.412 23.75,293.5527 Q23.1094,293.7089 22.4063,293.7089 Q19.9063,293.7089 18.5781,292.0683 Q17.2656,290.412 17.2656,287.287 Q17.2656,284.162 18.5781,282.5058 Q19.9063,280.8495 22.4063,280.8495 Q23.1094,280.8495 23.75,281.0058 Q24.4063,281.162 24.9688,281.4589 L24.9688,284.1777 Q24.3438,283.5995 23.75,283.3339 Q23.1563,283.0527 22.5313,283.0527 Q21.1875,283.0527 20.5,284.1308 Q19.8125,285.1933 19.8125,287.287 Q19.8125,289.3808 20.5,290.4589 Q21.1875,291.5214 22.5313,291.5214 Q23.1563,291.5214 23.75,291.2558 Q24.3438,290.9745 24.9688,290.3964 L24.9688,293.1152 Z " fill="#000000"/><text fill="#D9B8FF" font-family="Helvetica" font-size="17" lengthAdjust="spacing" textLength="158" x="41" y="293.3598">microsoft_resource</text></g><!--class phantom_resource--><g id="elem_phantom_resource"><rect codeLine="32" fill="#3D176E" height="39.7891" id="phantom_resource" rx="2.5" ry="2.5" style="stroke:#000D19;stroke-width:0.5;" width="198" x="160" y="167.79"/><ellipse cx="175" cy="187.6845" fill="#ADD1B2" rx="11" ry="11" style="stroke:#181818;stroke-width:1.0;"/><path d="M177.9688,193.3252 Q177.3906,193.622 176.75,193.7627 Q176.1094,193.9189 175.4063,193.9189 Q172.9063,193.9189 171.5781,192.2783 Q170.2656,190.622 170.2656,187.497 Q170.2656,184.372 171.5781,182.7158 Q172.9063,181.0595 175.4063,181.0595 Q176.1094,181.0595 176.75,181.2158 Q177.4063,181.372 177.9688,181.6689 L177.9688,184.3877 Q177.3438,183.8095 176.75,183.5439 Q176.1563,183.2627 175.5313,183.2627 Q174.1875,183.2627 173.5,184.3408 Q172.8125,185.4033 172.8125,187.497 Q172.8125,189.5908 173.5,190.6689 Q174.1875,191.7314 175.5313,191.7314 Q176.1563,191.7314 176.75,191.4658 Q177.3438,191.1845 177.9688,190.6064 L177.9688,193.3252 Z " fill="#000000"/><text fill="#D9B8FF" font-family="Helvetica" font-size="17" lengthAdjust="spacing" textLength="156" x="194" y="193.5698">phantom_resource</text></g><!--class resource--><g id="elem_resource"><rect codeLine="35" fill="#3D176E" height="39.7891" id="resource" rx="2.5" ry="2.5" style="stroke:#000D19;stroke-width:0.5;" width="113" x="85.5" y="7"/><ellipse cx="100.5" cy="26.8945" fill="#ADD1B2" rx="11" ry="11" style="stroke:#181818;stroke-width:1.0;"/><path d="M103.4688,32.5352 Q102.8906,32.832 102.25,32.9727 Q101.6094,33.1289 100.9063,33.1289 Q98.4063,33.1289 97.0781,31.4883 Q95.7656,29.832 95.7656,26.707 Q95.7656,23.582 97.0781,21.9258 Q98.4063,20.2695 100.9063,20.2695 Q101.6094,20.2695 102.25,20.4258 Q102.9063,20.582 103.4688,20.8789 L103.4688,23.5977 Q102.8438,23.0195 102.25,22.7539 Q101.6563,22.4727 101.0313,22.4727 Q99.6875,22.4727 99,23.5508 Q98.3125,24.6133 98.3125,26.707 Q98.3125,28.8008 99,29.8789 Q99.6875,30.9414 101.0313,30.9414 Q101.6563,30.9414 102.25,30.6758 Q102.8438,30.3945 103.4688,29.8164 L103.4688,32.5352 Z " fill="#000000"/><text fill="#D9B8FF" font-family="Helvetica" font-size="17" lengthAdjust="spacing" textLength="71" x="119.5" y="32.7798">resource</text></g><!--reverse link azure_usage to azure_machine_learning_usage--><g id="link_azure_usage_azure_machine_learning_usage"><path codeLine="38" d="M234.8512,423.4135 C219.0912,453.9335 196.71,497.27 180.93,527.83 " fill="none" id="azure_usage-backto-azure_machine_learning_usage" style="stroke:#FFAF37;stroke-width:2.0;"/><polygon fill="none" points="243.11,407.42,229.5201,420.6606,240.1824,426.1664,243.11,407.42" style="stroke:#FFAF37;stroke-width:2.0;"/></g><!--reverse link microsoft_resource to azure_machine_learning_usage--><g id="link_microsoft_resource_azure_machine_learning_usage"><path codeLine="39" d="M116.0325,324.9633 C127.8325,372.6633 154.29,479.56 166.2,527.66 " fill="none" id="microsoft_resource-backto-azure_machine_learning_usage" style="stroke:#FFAF37;stroke-width:2.0;"/><polygon fill="none" points="111.71,307.49,110.2081,326.4041,121.857,323.5224,111.71,307.49" style="stroke:#FFAF37;stroke-width:2.0;"/></g><!--reverse link phantom_resource to azure_usage--><g id="link_phantom_resource_azure_usage"><path codeLine="40" d="M257.867,225.9818 C256.727,263.7518 254.74,329.05 253.59,366.88 " fill="none" id="phantom_resource-backto-azure_usage" style="stroke:#FFAF37;stroke-width:2.0;"/><polygon fill="none" points="258.41,207.99,251.8697,225.8008,263.8642,226.1628,258.41,207.99" style="stroke:#FFAF37;stroke-width:2.0;"/></g><!--reverse link resource to microsoft_resource--><g id="link_resource_microsoft_resource"><path codeLine="41" d="M137.0148,64.7472 C130.5548,112.4572 116.14,218.98 109.62,267.08 " fill="none" id="resource-backto-microsoft_resource" style="stroke:#FFAF37;stroke-width:2.0;"/><polygon fill="none" points="139.43,46.91,131.0691,63.9422,142.9606,65.5523,139.43,46.91" style="stroke:#FFAF37;stroke-width:2.0;"/></g><!--reverse link resource to phantom_resource--><g id="link_resource_phantom_resource"><path codeLine="42" d="M166.7881,61.5406 C189.2781,92.0606 222.32,136.9 244.84,167.47 " fill="none" id="resource-backto-phantom_resource" style="stroke:#FFAF37;stroke-width:2.0;"/><polygon fill="none" points="156.11,47.05,161.9579,65.1,171.6183,57.9813,156.11,47.05" style="stroke:#FFAF37;stroke-width:2.0;"/></g><!--SRC=[ZP1FJm8n4CNl-ocQSDu49BgGU04IenTYnFjcQATimxRTJBiIKB-x86gwBN-yllURUM-cKW8PwiPlcKQzH7APMolJ085c4oAxcTdQ4kj92N9OnEQ3DVugC0UDx17hD_IAGqoyLegl3Jh7RW9h2doz8jiQSLpl2OpRMsXyGCrgS6xYFQbbwp4e8yRBaPGn6I_j3SMWkCC4ioIGVf1-loy6unYv6dNnxZzYeNR81k7JvjPZKZE9-AOkjZmGGSdaq5__RCTd44AP5RiDj9TZ9p987NrHWR2R0osXTc6CyqXe_RR1MN8LZaT25YVXftDmnW-lOx1h2KiDl586ong1p3wzR1siaBrdsMU7IsIjE5bdfIy9dMs9Tzoc0kEjFkbrjN3z_KUUvnUBPITY_p6Lr0bdZaXafJan4U_ClW00]--></g></svg>

<svg xmlns="http://www.w3.org/2000/svg" width="365" height="573" viewBox="0 0 365 573"><rect width="305" height="39.789" x="18.5" y="528.16" fill="#3D176E" rx="2.5" ry="2.5" style="stroke:#000d19;stroke-width:.5"/><circle cx="33.5" cy="548.054" r="11" fill="#ADD1B2" style="stroke:#181818;stroke-width:1"/><path d="M36.469 553.695q-.578.297-1.219.438-.64.156-1.344.156-2.5 0-3.828-1.64-1.312-1.657-1.312-4.782t1.312-4.781q1.328-1.657 3.828-1.657.703 0 1.344.157.656.156 1.219.453v2.719q-.625-.579-1.219-.844-.594-.281-1.219-.281-1.343 0-2.031 1.078-.687 1.062-.687 3.156t.687 3.172q.688 1.062 2.031 1.062.625 0 1.219-.265.594-.282 1.219-.86z"/><text x="52.5" y="553.94" fill="#D9B8FF" font-family="Helvetica" font-size="17" textLength="263">azure_machine_learning_usage</text><rect width="146" height="39.789" x="180" y="367.37" fill="#3D176E" rx="2.5" ry="2.5" style="stroke:#000d19;stroke-width:.5"/><circle cx="195" cy="387.264" r="11" fill="#ADD1B2" style="stroke:#181818;stroke-width:1"/><path d="M197.969 392.905q-.578.297-1.219.438-.64.156-1.344.156-2.5 0-3.828-1.64-1.312-1.657-1.312-4.782t1.312-4.781q1.328-1.656 3.828-1.656.703 0 1.344.156.656.156 1.219.453v2.719q-.625-.579-1.219-.844-.594-.281-1.219-.281-1.344 0-2.031 1.078-.687 1.062-.687 3.156t.687 3.172q.688 1.062 2.031 1.062.625 0 1.219-.265.594-.281 1.219-.86z"/><text x="214" y="393.15" fill="#D9B8FF" font-family="Helvetica" font-size="17" textLength="104">azure_usage</text><rect width="200" height="39.789" x="7" y="267.58" fill="#3D176E" rx="2.5" ry="2.5" style="stroke:#000d19;stroke-width:.5"/><circle cx="22" cy="287.474" r="11" fill="#ADD1B2" style="stroke:#181818;stroke-width:1"/><path d="M24.969 293.115q-.578.297-1.219.438-.64.156-1.344.156-2.5 0-3.828-1.64-1.312-1.657-1.312-4.782t1.312-4.781q1.328-1.656 3.828-1.656.703 0 1.344.156.656.156 1.219.453v2.719q-.625-.579-1.219-.844-.594-.281-1.219-.281-1.343 0-2.031 1.078-.687 1.062-.687 3.156t.687 3.172q.688 1.062 2.031 1.062.625 0 1.219-.265.594-.281 1.219-.86z"/><text x="41" y="293.36" fill="#D9B8FF" font-family="Helvetica" font-size="17" textLength="158">microsoft_resource</text><rect width="198" height="39.789" x="160" y="167.79" fill="#3D176E" rx="2.5" ry="2.5" style="stroke:#000d19;stroke-width:.5"/><circle cx="175" cy="187.685" r="11" fill="#ADD1B2" style="stroke:#181818;stroke-width:1"/><path d="M177.969 193.325q-.578.297-1.219.438-.64.156-1.344.156-2.5 0-3.828-1.64-1.312-1.657-1.312-4.782t1.312-4.781q1.328-1.656 3.828-1.656.703 0 1.344.156.656.156 1.219.453v2.719q-.625-.578-1.219-.844-.594-.281-1.219-.281-1.344 0-2.031 1.078-.687 1.062-.687 3.156t.687 3.172q.688 1.062 2.031 1.062.625 0 1.219-.265.594-.281 1.219-.86z"/><text x="194" y="193.57" fill="#D9B8FF" font-family="Helvetica" font-size="17" textLength="156">phantom_resource</text><rect width="113" height="39.789" x="85.5" y="7" fill="#3D176E" rx="2.5" ry="2.5" style="stroke:#000d19;stroke-width:.5"/><circle cx="100.5" cy="26.895" r="11" fill="#ADD1B2" style="stroke:#181818;stroke-width:1"/><path d="M103.469 32.535q-.578.297-1.219.438-.64.156-1.344.156-2.5 0-3.828-1.64-1.312-1.657-1.312-4.782t1.312-4.781q1.328-1.656 3.828-1.656.703 0 1.344.156.656.156 1.219.453v2.719q-.625-.578-1.219-.844-.594-.281-1.219-.281-1.344 0-2.031 1.078-.687 1.062-.687 3.156T99 29.879q.688 1.062 2.031 1.062.625 0 1.219-.265.594-.281 1.219-.86z"/><text x="119.5" y="32.78" fill="#D9B8FF" font-family="Helvetica" font-size="17" textLength="71">resource</text><path fill="none" d="M234.851 423.414c-15.76 30.52-38.141 73.856-53.921 104.416m62.18-120.41-13.59 13.24 10.662 5.506zm-127.077-82.457c11.8 47.7 38.257 154.597 50.167 202.697m-54.49-220.17-1.502 18.914 11.649-2.882zm146.157-81.508c-1.14 37.77-3.127 103.068-4.277 140.898m4.82-158.89-6.54 17.81 11.994.363zM137.015 64.747c-6.46 47.71-20.875 154.233-27.395 202.333m29.81-220.17-8.36 17.032 11.89 1.61z" style="stroke:#ffaf37;stroke-width:2"/><g fill="none"><path d="M166.788 61.54c22.49 30.52 55.532 75.36 78.052 105.93" style="stroke:#ffaf37;stroke-width:2"/><path d="m156.11 47.05 5.848 18.05 9.66-7.119z" style="stroke:#ffaf37;stroke-width:2"/></g></svg>
